X:1
T:Bromsgrove, CM
T:Psalmodia Evangelica, part II, 1789 
T:Bromsgrove, CM
T:Public Domain
C:Psalmodia Evangelica, part II, 1789
Z:Public Domain
%%score ( 1 2 ) ( 3 4 )
L:1/8
M:4/4
K:Bb
V:1 treble 
V:2 treble 
V:3 bass 
V:4 bass 
V:1
 [DB]4 [DB]2 F2 | (G3 A) [FB]2 [Ge]2 | (d2 c2) B2 A2 | [FB]6 [FB]2 | [Fc]4 [Fd]2 [GB]2 | %5
 [FA]4 [=EG]4 x2 | F6 [Fc]2 | [Fc]6 [Fc]2 | [Fd]4 [FB]4 | [EG]4 [Ec]4 | (D2 =E2) [FA]2 [Fc]2 | %11
 d2 B2 [Ee]2 [Gc]2 | [FB]4 (F2 E2) | [DB]8 |] %14
V:2
 x6 F2 | E4 x4 | F4 F4 | x8 | x8 | x10 | F6 x2 | x8 | x8 | x8 | B4 x4 | F4 x4 | x4 A4 | x8 |] %14
V:3
 [B,,B,]4 [B,,B,]2 [D,B,]2 | (E,4 D,2) [E,B,]2 | (B,2 E2) (D2 C2) | [B,,D]6 [B,,D]2 | %4
 [A,,C]4 (B,2 D2) | C,4 z2 B,2 x2 | [F,A,]6 [F,A,]2 | [A,C]6 [F,A,]2 | B,4 [D,B,]4 | %9
 [E,B,]4 [C,C]4 | (D4 C2) [F,A,]2 | (B,,2 D,2) [C,G,]2 [E,C]2 | [F,D]4 [F,C]4 | [B,,B,]8 |] %14
V:4
 x8 | B,6 x2 | F,4 F,4 | x8 | x4 B,,4 | C6 C,4 | x8 | x8 | B,4 x4 | x8 | F,6 x2 | B,4 x4 | x8 | %13
 x8 |] %14

